X: 14
T: Jig Of Slurs, The
C: G.S. MacLennan
Z: ceili
S: https://thesession.org/tunes/35#setting51722
R: jig
M: 6/8
L: 1/8
K: Dmaj
|:"D"Add cdd|"G"Bdd "D"Add|"G"Bdd "D"Add|"G"Bee "A"edB|
"D"Add cdd|"G"Bdd "D"Add|"G"Bdd "A"cde|"D"fdc d3:|
|:"D"A2f fef|a/a/af fed|"G"B2e ede|"A"f/f/ff edB|
"D"A2f fef|a/a/af fed|"G"Bdd "A"cde|"D"fdc d3:|
|:"G"G2g gfg|"D"agf "G"gdB|"G"G/G/Gg gfg|"D"agf "G"gdB|
"G"G2g gfg|"D"agf "G"gdB|"G"Bee efg|"D"fed "G"edB:|
|:"G"GBB Bdd|dee edB|GBB Bdd|dee efg|
GBB Bdd|dee edB|"Em"e/e/ee efg|"D"fed e3:|

